X:1

T:Bay and the Grey, The

M:6/8

L:1/8

S:Joyce – Old Irish Folk Music and Songs  (1909)

Z:AK/Fiddler’s Companion

K:G

GBd g3|agf g3|d2g fdc|B3A3|GBd =f2|g=fe f3|d2g fdc|B3G3||

BGB ded/c/|BGB ded/c/|Bcd edc|B3 dcB|AFG cec|AFA cec|Bcd edc|B3G3||

                       

BAY OF BANTRY, THE. AKA and see "The Gobby O."

                       

BAY OF BISCAY O, THE. Irish, Air (4/4 time, "Quick and spirited"). D Major. Standard tuning. AB. O'Neill (Music of Ireland: 1850 Melodies), 1903/1979; No. 329, pg. 57.

